assets/icons/speaker/overamplified.svg

<?xml version="1.0" encoding="UTF-8" standalone="no"?>
<svg viewBox="0 0 24 24" height="24" id="svg7384" version="1.1" width="24" sodipodi:docname="overamplified.svg" inkscape:version="1.1 (ce6663b3b7, 2021-05-25)"
   xmlns:inkscape="http://www.inkscape.org/namespaces/inkscape"
   xmlns:sodipodi="http://sodipodi.sourceforge.net/DTD/sodipodi-0.dtd"
   xmlns="http://www.w3.org/2000/svg"
   xmlns:svg="http://www.w3.org/2000/svg"
   xmlns:rdf="http://www.w3.org/1999/02/22-rdf-syntax-ns#"
   xmlns:cc="http://creativecommons.org/ns#"
   xmlns:dc="http://purl.org/dc/elements/1.1/">
   <sodipodi:namedview id="namedview915" pagecolor="#ffffff" bordercolor="#666666" borderopacity="1.0" inkscape:pageshadow="2" inkscape:pageopacity="0.0" inkscape:pagecheckerboard="0" showgrid="true" inkscape:snap-page="true" inkscape:zoom="19.798991" inkscape:cx="33.814855" inkscape:cy="10.581347" inkscape:window-width="1920" inkscape:window-height="1016" inkscape:window-x="0" inkscape:window-y="27" inkscape:window-maximized="1" inkscape:current-layer="svg7384">
      <inkscape:grid type="xygrid" id="grid927" />
   </sodipodi:namedview>
   <metadata id="metadata20854">
      <rdf:RDF>
         <cc:Work rdf:about="">
            <dc:format>image/svg+xml</dc:format>
            <dc:type rdf:resource="http://purl.org/dc/dcmitype/StillImage" />
         </cc:Work>
      </rdf:RDF>
   </metadata>
   <defs id="defs7386">
      <linearGradient id="linearGradient5606" inkscape:swatch="solid">
         <stop id="stop5608" offset="0" style="stop-color:#000000;stop-opacity:1;" />
      </linearGradient>
      <linearGradient id="linearGradient4526" inkscape:swatch="solid">
         <stop id="stop4528" offset="0" style="stop-color:#ffffff;stop-opacity:1;" />
      </linearGradient>
      <linearGradient id="linearGradient3600-4" inkscape:swatch="gradient">
         <stop id="stop3602-7" offset="0" style="stop-color:#f4f4f4;stop-opacity:1" />
         <stop id="stop3604-6" offset="1" style="stop-color:#dbdbdb;stop-opacity:1" />
      </linearGradient>
   </defs>
   <path style="color:#000000;fill:#808080;-inkscape-stroke:none;fill-opacity:1" d="m 11.992188,3.2929688 -4.7070318,4.7070312 h -3.0722656 l -0.1464844,0.2382813 c -1.4056249,2.2899907 -1.4156795,5.2106197 -0.00195,7.5234377 l 0.1464844,0.238281 h 3.0742187 l 4.7070318,4.707031 z m -1,2.4140624 v 12.5859378 l -3.2929693,-3.292969 h -2.8476562 c -1.0444344,-1.879406 -1.0373261,-4.140352 0,-6 h 2.8476562 z" id="path857" />
   <path id="path1025" style="color:#000000;fill:#808080;stroke-linecap:square;-inkscape-stroke:none;fill-opacity:1" d="M 14.908203 8.2128906 L 14.201172 8.9199219 C 15.938965 10.718753 15.938944 13.281282 14.201172 15.080078 L 14.908203 15.787109 C 16.999056 13.630982 16.999081 10.369043 14.908203 8.2128906 z " />
   <path id="path1481" style="color:#000000;fill:#808080;-inkscape-stroke:none;fill-opacity:1" d="M 17.908203 5.2128906 L 17.201172 5.9199219 C 19.083414 7.8287522 19.992188 9.9219091 19.992188 12 C 19.992188 14.078091 19.083414 16.171248 17.201172 18.080078 L 17.908203 18.787109 C 19.939395 16.728816 20.992188 14.373033 20.992188 12 C 20.992188 9.6269669 19.939395 7.2711835 17.908203 5.2128906 z " />
   <path style="color:#000000;fill:#808080;-inkscape-stroke:none;fill-opacity:1" d="m 17.646484,2.6464844 -5,5 0.707032,0.7070312 5,-5 z" id="path964" />
   <path style="color:#000000;fill:#808080;-inkscape-stroke:none;fill-opacity:1" d="m 13.353516,15.646484 -0.707032,0.707032 5,5 0.707032,-0.707032 z" id="path966" />
</svg>

<svg height="24" width="24" xmlns="http://www.w3.org/2000/svg"><path style="color:#000;fill:gray;-inkscape-stroke:none;fill-opacity:1" d="M11.992 3.293 7.285 8H4.213l-.147.238a7.22 7.22 0 0 0-.002 7.524l.147.238h3.074l4.707 4.707zm-1 2.414v12.586L7.7 15H4.852a6.155 6.155 0 0 1 0-6h2.847z"/><path style="color:#000;fill:gray;stroke-linecap:square;-inkscape-stroke:none;fill-opacity:1" d="m14.908 8.213-.707.707c1.738 1.799 1.738 4.361 0 6.16l.707.707c2.091-2.156 2.091-5.418 0-7.574z"/><path style="color:#000;fill:gray;-inkscape-stroke:none;fill-opacity:1" d="m17.908 5.213-.707.707c1.882 1.909 2.791 4.002 2.791 6.08 0 2.078-.909 4.171-2.79 6.08l.706.707c2.031-2.058 3.084-4.414 3.084-6.787s-1.053-4.729-3.084-6.787zm-.262-2.567-5 5 .708.708 5-5zm-4.292 13-.708.708 5 5 .708-.708z"/></svg>
